icons/server-32.svg

<svg xmlns="http://www.w3.org/2000/svg" viewBox="0 0 32 32"><path d="M7 14H5v-1h2zm3-1H8v1h2zm3 0h-2v1h2zm17-9v19h-9v4h2v1h4v1h-4v1h-5v-1H6v-1h12v-1h2v-4H2V4zm-8 24h-3v1h3zm7-11H3v5h26zm0-6H3v5h26zm0-1V5H3v5zM7 19H5v1h2zm3 0H8v1h2zm3 0h-2v1h2zM5 8h2V7H5zm3 0h2V7H8zm3 0h2V7h-2z"/><path fill="none" d="M0 0h32v32H0z"/></svg>

<svg id="icons" xmlns="http://www.w3.org/2000/svg" viewBox="0 0 32 32"><path d="M7,14H5V13H7Zm3-1H8v1h2Zm3,0H11v1h2ZM30,4V23H21v4h2v1h4v1H23v1H18V29H6V28H18V27h2V23H2V4ZM22,28H19v1h3Zm7-11H3v5H29Zm0-6H3v5H29Zm0-1V5H3v5ZM7,19H5v1H7Zm3,0H8v1h2Zm3,0H11v1h2ZM5,8H7V7H5ZM8,8h2V7H8Zm3,0h2V7H11Z"/><path fill="none" d="M0 0h32v32H0z"/></svg>
